X: 11
T: No_10_At_Ca'gobêns'_Village.krn
%%abc-version 2.0
%%abcx-abcm2ps-target-version 5.9.1 (29 Sep 2008)
%%abc-creator hum2abc beta
%%abcx-conversion-date 2020/08/10 18:54:56
%%gracespace 0 6 6
%%humdrum-veritas 2544154975
%%humdrum-veritas-data 3100040151
%%linebreak <none>
%%barnumbers 0
L: 1/8
M: 3/4
%%staves {1 2}
V: 1 clef=bass
V: 2 clef=bass
K: C
[V:1] CE2 [I:setbarnb 1]| 
[V:2] z3 | 
[V:1] C2>A,2C2 ||  
[V:2] !accent!G,,G,, !accent!G,,G,, !accent!G,,G,, ||  
[V:1] [M:2/4]A,3E,- | 
[V:2] [M:2/4]z4 | 
[V:1] E,>EE2 ||  
[V:2] z4 ||  
[V:1] [M:3/4]C2>A,2C2 ||  
[V:2] [M:3/4]z6 ||  
[V:1] [M:2/4]A,4 | 
[V:2] [M:2/4]z4 | 
[V:1] A,A, !fermata!A,3/A,/ | 
[V:2] z4 | 
[V:1] A,2A,A, | 
[V:2] z4 | 
[V:1] (3:2:1CC(3:2:1C/A,2 | 
[V:2] z4 | 
[V:1] A,A, A,A, | 
[V:2] z4 | 
[V:1] E,2D,C,- | 
[V:2] z4 | 
[V:1] !fermata!C,2A,3/A,/ | 
[V:2] z4 | 
[V:1] A,3C | 
[V:2] z4 | 
[V:1] C2A,2 | 
[V:2] z4 | 
[V:1] E,2D,C, | 
[V:2] z4 | 
[V:1] E,2C,2- | 
[V:2] z4 | 
[V:1] C,E,C,2 | 
[V:2] z4 | 
[V:1] A,,2A,,2 |]  
[V:2] z4 |]  


